!!!OTL: Der Vorwirt Es ritt ein Herr mit seinem Ross
!!!ARE: Europa, Osteuropa, Tschechoslowakei, Oesterreich - Schlesien
!!!ARD1: Europa%Osteuropa%Ceska Republika@Oesterreich-Schlesien#?
!!!ARL1: 50.16/17.00#?
!!!ARD2: Europa%Osteuropa%Tschechoslowakei@
!!!ARL2: 49.75/15.00@
!!!YOR: 5, S. 16
!!    1865 gedruckt in Troppau
!!!SCT: Q0089E
!!!YEM: Copyright 1995, estate of Helmut Schaffrath.
**kern
*ICvox
*Ivox
*M3/4
*k[f#]
*G:
{8d
=1
8g
8g
8b
8a
4g
=2
8a
8b
4g
8r}
{8g
=3
8b
16dd
16ee
8dd
8cc
4b
=4
16dd
16dd
8cc
4b
8r}
{8b
=5
8dd
16dd
16ee
8dd
8cc
4b
=6
8cc
8b
4a
8r}
{8g
=7
8b
16dd
16ee
8dd
8cc
4b
=8
8dd
8cc
4b
8r}
==
!!!AGN: Ballade, Mord, Grab, Auferstehen, Geist
!!!ONB: ESAC (Essen Associative Code) Database: BALLADE
!!!AMT: simple triple
!!!AIN: vox
!!!EED: Helmut Schaffrath
!!!EEV: 1.0
*-
!!!title: @{OTL} [@{SCT}]
